styles/5/Numix-Circle/48x48/apps/dolphin.svg

<?xml version="1.0" encoding="UTF-8" standalone="no"?>
<svg
   xmlns:dc="http://purl.org/dc/elements/1.1/"
   xmlns:cc="http://creativecommons.org/ns#"
   xmlns:rdf="http://www.w3.org/1999/02/22-rdf-syntax-ns#"
   xmlns:svg="http://www.w3.org/2000/svg"
   xmlns="http://www.w3.org/2000/svg"
   xmlns:xlink="http://www.w3.org/1999/xlink"
   xmlns:sodipodi="http://sodipodi.sourceforge.net/DTD/sodipodi-0.dtd"
   xmlns:inkscape="http://www.inkscape.org/namespaces/inkscape"
   width="48"
   viewBox="0 0 13.546667 13.546667"
   height="48"
   id="svg2"
   version="1.1"
   inkscape:version="0.91 r"
   sodipodi:docname="dolphin.svg">
  <metadata
     id="metadata331">
    <rdf:RDF>
      <cc:Work
         rdf:about="">
        <dc:format>image/svg+xml</dc:format>
        <dc:type
           rdf:resource="http://purl.org/dc/dcmitype/StillImage" />
        <dc:title />
      </cc:Work>
    </rdf:RDF>
  </metadata>
  <sodipodi:namedview
     pagecolor="#ffffff"
     bordercolor="#666666"
     borderopacity="1"
     objecttolerance="10"
     gridtolerance="10"
     guidetolerance="10"
     inkscape:pageopacity="0"
     inkscape:pageshadow="2"
     inkscape:window-width="1280"
     inkscape:window-height="998"
     id="namedview329"
     showgrid="true"
     inkscape:zoom="12.118768"
     inkscape:cx="34.020596"
     inkscape:cy="26.939408"
     inkscape:window-x="0"
     inkscape:window-y="0"
     inkscape:window-maximized="1"
     inkscape:current-layer="layer3"
     showguides="true"
     inkscape:guide-bbox="true">
    <inkscape:grid
       type="xygrid"
       id="grid3308" />
  </sodipodi:namedview>
  <defs
     id="defs4">
    <linearGradient
       id="linearGradient4140">
      <stop
         style="stop-color:#2684da;stop-opacity:1;"
         offset="0"
         id="stop4143" />
      <stop
         style="stop-color:#3f96e5;stop-opacity:1;"
         offset="1"
         id="stop4145" />
    </linearGradient>
    <linearGradient
       inkscape:collect="always"
       xlink:href="#linearGradient4140"
       id="linearGradient4147"
       x1="-27"
       y1="13"
       x2="-24"
       y2="13"
       gradientUnits="userSpaceOnUse" />
  </defs>
  <g
     inkscape:groupmode="layer"
     id="layer1"
     inkscape:label="Shadow"
     sodipodi:insensitive="true">
    <path
       style="opacity:0.05;fill:#000000;fill-opacity:1;stroke:none"
       d="M 25,2 C 12.297451,2 2,12.297451 2,25 2,31.367153 4.6007106,37.116628 8.78125,41.28125 12.865755,44.99361 18.29568,47.25 24.25,47.25 c 12.702549,0 23,-10.297451 23,-23 0,-5.95432 -2.25639,-11.384245 -5.96875,-15.46875 C 37.116628,4.6007105 31.367153,2 25,2 z M 41.28125,8.78125 C 45.135604,12.894061 47.5,18.418655 47.5,24.5 c 0,12.702549 -10.297451,23 -23,23 C 18.418655,47.5 12.894061,45.135604 8.78125,41.28125 12.940939,45.4251 18.664604,48 25,48 37.702549,48 48,37.702549 48,25 48,18.664604 45.4251,12.940939 41.28125,8.78125 z"
       transform="scale(0.28222223,0.28222223)"
       id="path3978"
       inkscape:connector-curvature="0" />
    <path
       style="opacity:0.1;fill:#000000;fill-opacity:1;stroke:none"
       d="M 41.28125,8.78125 C 44.99361,12.865755 47.25,18.29568 47.25,24.25 c 0,12.702549 -10.297451,23 -23,23 -5.95432,0 -11.384245,-2.25639 -15.46875,-5.96875 C 12.894061,45.135604 18.418655,47.5 24.5,47.5 c 12.702549,0 23,-10.297451 23,-23 0,-6.081345 -2.364396,-11.605939 -6.21875,-15.71875 z"
       transform="scale(0.28222223,0.28222223)"
       id="path3976"
       inkscape:connector-curvature="0" />
    <path
       transform="matrix(4.3274074,0,0,3.2455556,117.19278,-35.348334)"
       d="m -24,13 a 1.5,2 0 1 1 -3,0 1.5,2 0 1 1 3,0 z"
       sodipodi:ry="2"
       sodipodi:rx="1.5"
       sodipodi:cy="13"
       sodipodi:cx="-25.5"
       id="path3952"
       style="opacity:0.2;fill:#000000;fill-opacity:1;stroke:none"
       sodipodi:type="arc" />
  </g>
  <g
     inkscape:groupmode="layer"
     id="layer2"
     inkscape:label="Base">
    <path
       sodipodi:type="arc"
       style="fill:url(#linearGradient4147);fill-opacity:1;stroke:none"
       id="path3942"
       sodipodi:cx="-25.5"
       sodipodi:cy="13"
       sodipodi:rx="1.5"
       sodipodi:ry="2"
       d="m -24,13 a 1.5,2 0 1 1 -3,0 1.5,2 0 1 1 3,0 z"
       transform="matrix(0,-4.3274075,3.2455556,0,-35.429918,-103.60974)" />
    <path
       style="opacity:0.1;fill:#000000;fill-opacity:1;stroke:none"
       d="M 40.03125 7.53125 C 43.74361 11.615755 46 17.04568 46 23 C 46 35.702549 35.702549 46 23 46 C 17.04568 46 11.615755 43.74361 7.53125 40.03125 C 11.709416 44.322508 17.537578 47 24 47 C 36.702549 47 47 36.702549 47 24 C 47 17.537578 44.322508 11.709416 40.03125 7.53125 z "
       transform="scale(0.28222223,0.28222223)"
       id="path4027" />
  </g>
  <g
     inkscape:groupmode="layer"
     id="layer3"
     inkscape:label="Symbol">
    <rect
       style="fill:#fffdf0;fill-opacity:1;stroke:none"
       id="rect3799"
       width="3.104444"
       height="1.1288817"
       x="3.9511118"
       y="5.0799975" />
    <path
       style="fill:none;stroke:none"
       d="m 6.7733341,4.938886 -0.7055557,0.4233335 0.4233335,0 z"
       id="path3801"
       inkscape:connector-curvature="0" />
    <path
       style="fill:#000000;fill-opacity:0.10196078;stroke:none"
       d="m 7.9375001,4.2333302 c -0.5373541,0 -0.7117802,0.4237227 -0.9877778,0.8466667 l -2.5752776,0 c -0.3908778,0 -0.7055556,0.3146778 -0.7055556,0.7055556 l 0,0.2822222 0,2.3988891 0,0.4233332 0,0.246945 0,0.03528 c 0.00181,0.03914 0.010132,0.07736 0.017639,0.114652 0.03366,0.195038 0.1448299,0.361522 0.3086805,0.467431 0.078311,0.05062 0.168557,0.0871 0.2645834,0.105833 0.048013,0.0099 0.090127,0.01764 0.141111,0.01764 l 5.3093059,0 c 0.050984,0 0.093098,-0.0077 0.1411111,-0.01764 0.096026,-0.01874 0.186272,-0.05522 0.264583,-0.105833 0.16385,-0.105909 0.275021,-0.272393 0.308681,-0.467431 0.0075,-0.0373 0.01583,-0.07552 0.01764,-0.114652 l 0,-0.03528 0,-0.246945 0,-3.9158334 c 0,-0.4125934 -0.324141,-0.7408334 -0.7320131,-0.7408334 l -1.7727084,0 z"
       id="rect3375"
       inkscape:connector-curvature="0" />
    <path
       inkscape:connector-curvature="0"
       style="fill:#f57c00;fill-opacity:1;stroke:none"
       d="m 4.0922223,4.5155556 c -0.3908777,0 -0.7055555,0.3146779 -0.7055555,0.7055557 l 0,2.6811111 6.4911113,0 0,-2.6811111 c 0,-0.3908778 -0.3146778,-0.7055557 -0.7055556,-0.7055557 l -5.0800002,0 z"
       id="rect2987-2" />
    <path
       style="opacity:0.2;fill:#ffffff;fill-opacity:1;stroke:none"
       d="m 4.0922223,4.5155556 c -0.3908777,0 -0.7055555,0.3146779 -0.7055555,0.7055557 l 0,0.2822223 c 0,-0.3908778 0.3146778,-0.7055557 0.7055555,-0.7055557 l 5.0800005,0 c 0.3908775,0 0.7055553,0.3146779 0.7055553,0.7055557 l 0,-0.2822223 c 0,-0.3908778 -0.3146778,-0.7055557 -0.7055553,-0.7055557 l -5.0800005,0 z"
       id="rect3797"
       inkscape:connector-curvature="0" />
    <path
       style="fill:#ffb300;fill-opacity:1;stroke:none"
       d="m 4.1228988,5.6444418 1.177971,0 C 6.9205806,5.4954912 6.6260874,3.9511084 7.6568122,3.9511084 l 1.7669567,0 c 0.4078722,0 0.7362311,0.3321599 0.7362311,0.7447533 l 0,4.1549383 c 0,0.412593 -0.3283589,0.744753 -0.7362311,0.744753 l -5.3008701,0 c -0.4078725,0 -0.7362319,-0.33216 -0.7362319,-0.744753 l 0,-2.3675302 c 0,-0.4468519 0.2944927,-0.838828 0.7362319,-0.838828 z"
       id="rect3776"
       inkscape:connector-curvature="0"
       sodipodi:nodetypes="cccsssssscc" />
    <path
       d="m 5.9223887,6.6107284 c -0.00828,0 -0.013741,0.00212 -0.017975,0.00899 -0.022027,0.038602 0.02132,0.1639254 -0.011632,0.2293192 -0.032418,0.065394 -0.032418,0.081964 -0.2939022,0.049531 C 5.3373951,6.8661345 4.9449916,6.9805299 4.8038531,7.1217172 4.6606002,7.2636095 4.4170879,7.6230116 4.3668699,7.8302978 4.3187666,8.0375842 4.3407919,8.0485126 4.4061629,8.0162562 4.4708293,7.983119 4.5259803,7.6940459 4.9113364,7.5040335 c 0.38747,-0.1907176 0.5679017,-0.038602 0.5679017,-0.038602 0,0 -0.3331996,-0.044065 -0.5774166,0.1577561 -0.245098,0.202351 -0.3978658,0.3594021 -0.3924038,0.4214469 0.00547,0.059931 0.026783,0.047591 0.066075,0 0.037883,-0.049529 0.266419,-0.3490024 0.5390044,-0.4475338 0.2725859,-0.099236 0.3867653,-0.092186 0.4900201,-0.037898 0.1039595,0.054466 0.1259846,0.1073449 -0.020616,0.1452415 -0.1480103,0.039308 -0.2079192,0.022033 -0.2079192,0.022033 0,0 0.1252797,0.1142185 0.3043022,0.1142185 0.1802557,0 0.2898538,-0.011103 0.2898538,-0.011103 0,0 0.4459688,0.4633976 0.5610292,0.5562886 0.1136518,0.092186 0.2401644,0.048824 0.2401644,-0.00617 0,-0.054466 -0.055154,-0.2072864 -0.055154,-0.2072864 0,0 0.1141792,-0.2568166 -0.017271,-0.5453604 C 6.5681666,7.3378153 6.208889,7.0390482 6.208889,7.0390482 c 0,0 -0.037884,-0.1639255 -0.1191126,-0.2726803 C 6.0237047,6.6782372 5.956924,6.6114332 5.9225649,6.6100231 M 4.066973,7.9305919 c -0.015858,7.058e-4 -0.03242,0.00476 -0.047575,0.013749 -0.1252798,0.070857 -0.059909,0.1968868 0.049513,0.1968868 0.1087162,0 0.2285353,-0.044064 0.2285353,-0.044064 0,0 -0.1169985,-0.1707995 -0.2306495,-0.1658642 M 4.307666,8.1412288 c 0,0 -0.2443934,0.037191 -0.271881,0.1521156 -0.027488,0.1142187 0.1025495,0.1473566 0.1844843,0.087428 0.081935,-0.059931 0.087396,-0.2395428 0.087396,-0.2395428 m 0,0"
       id="path4159"
       inkscape:connector-curvature="0"
       style="fill:#000000;fill-opacity:0.09803922;fill-rule:nonzero;stroke:none" />
    <path
       style="fill:#fff8e1;fill-opacity:1;fill-rule:nonzero;stroke:none"
       inkscape:connector-curvature="0"
       id="path77"
       d="m 5.9223887,6.2973705 c -0.00828,0 -0.013741,0.00212 -0.017975,0.00899 -0.022027,0.038601 0.02132,0.1639253 -0.011632,0.2293191 -0.032418,0.065394 -0.032418,0.081964 -0.2939022,0.049531 C 5.3373951,6.5527769 4.9449916,6.6671722 4.8038531,6.8083593 4.6606002,6.9502517 4.4170879,7.3096538 4.3668699,7.51694 c -0.048103,0.2072864 -0.026078,0.2182148 0.039293,0.1859584 0.064666,-0.033137 0.1198174,-0.3222102 0.5051735,-0.5122226 0.38747,-0.1907175 0.5679017,-0.038602 0.5679017,-0.038602 0,0 -0.3331996,-0.044065 -0.5774166,0.1577561 -0.245098,0.202351 -0.3978658,0.3594022 -0.3924038,0.4214469 0.00547,0.059931 0.026783,0.047591 0.066075,0 0.037883,-0.049529 0.2664188,-0.3490023 0.5390042,-0.4475338 0.2725859,-0.099236 0.3867653,-0.092186 0.4900201,-0.037897 0.1039596,0.054466 0.1259846,0.1073449 -0.020616,0.1452415 -0.1480102,0.039308 -0.2079192,0.022033 -0.2079192,0.022033 0,0 0.1252798,0.1142185 0.3043022,0.1142185 0.1802557,0 0.2898538,-0.011102 0.2898538,-0.011102 0,0 0.4459688,0.4633975 0.5610292,0.5562886 0.1136518,0.092186 0.2401644,0.048824 0.2401644,-0.00617 0,-0.054466 -0.055154,-0.2072863 -0.055154,-0.2072863 0,0 0.1141792,-0.2568165 -0.017271,-0.5453604 C 6.5681666,7.0244575 6.208889,6.7256904 6.208889,6.7256904 c 0,0 -0.037884,-0.1639256 -0.1191126,-0.2726804 C 6.0237047,6.3648794 5.956924,6.2980755 5.9225649,6.2966654 M 4.066973,7.6172341 c -0.015858,7.059e-4 -0.03242,0.00476 -0.047575,0.013749 -0.1252798,0.070857 -0.059909,0.1968867 0.049513,0.1968867 0.1087162,0 0.2285353,-0.044065 0.2285353,-0.044065 0,0 -0.1169985,-0.1707996 -0.2306495,-0.1658643 M 4.307666,7.8278707 c 0,0 -0.2443934,0.037191 -0.271881,0.1521158 -0.027488,0.1142187 0.1025495,0.1473565 0.1844843,0.087428 0.081935,-0.059931 0.087396,-0.2395427 0.087396,-0.2395427 m 0,0" />
    <path
       style="opacity:0.15;fill:#000000;fill-opacity:1;stroke:none"
       d="m 3.3866668,8.607775 0,0.282223 c 0,0.390877 0.3283595,0.705555 0.736232,0.705555 l 5.3008701,0 C 9.8316411,9.595553 10.16,9.280875 10.16,8.889998 l 0,-0.282223 c 0,0.390878 -0.3283589,0.705556 -0.7362311,0.705556 l -5.3008701,0 c -0.4078725,0 -0.736232,-0.314678 -0.736232,-0.705556 z"
       id="path3786"
       inkscape:connector-curvature="0"
       sodipodi:nodetypes="csssscssc" />
  </g>
</svg>

<svg xmlns="http://www.w3.org/2000/svg" viewBox="0 0 48 48">
 <defs>
  <linearGradient id="linearGradient3813" gradientUnits="userSpaceOnUse" gradientTransform="matrix(0,-1,1,0,-1.5e-6,47.999998)" x1="1" x2="47">
   <stop style="stop-color:#2684da;stop-opacity:1"/>
   <stop offset="1" style="stop-color:#3f96e5;stop-opacity:1"/>
  </linearGradient>
 </defs>
 <g>
  <path d="m 36.31 5 c 5.859 4.062 9.688 10.831 9.688 18.5 c 0 12.426 -10.07 22.5 -22.5 22.5 c -7.669 0 -14.438 -3.828 -18.5 -9.688 c 1.037 1.822 2.306 3.499 3.781 4.969 c 4.085 3.712 9.514 5.969 15.469 5.969 c 12.703 0 23 -10.298 23 -23 c 0 -5.954 -2.256 -11.384 -5.969 -15.469 c -1.469 -1.475 -3.147 -2.744 -4.969 -3.781 z m 4.969 3.781 c 3.854 4.113 6.219 9.637 6.219 15.719 c 0 12.703 -10.297 23 -23 23 c -6.081 0 -11.606 -2.364 -15.719 -6.219 c 4.16 4.144 9.883 6.719 16.219 6.719 c 12.703 0 23 -10.298 23 -23 c 0 -6.335 -2.575 -12.06 -6.719 -16.219 z" style="opacity:0.05"/>
  <path d="m 41.28 8.781 c 3.712 4.085 5.969 9.514 5.969 15.469 c 0 12.703 -10.297 23 -23 23 c -5.954 0 -11.384 -2.256 -15.469 -5.969 c 4.113 3.854 9.637 6.219 15.719 6.219 c 12.703 0 23 -10.298 23 -23 c 0 -6.081 -2.364 -11.606 -6.219 -15.719 z" style="opacity:0.1"/>
  <path d="m 31.25 2.375 c 8.615 3.154 14.75 11.417 14.75 21.13 c 0 12.426 -10.07 22.5 -22.5 22.5 c -9.708 0 -17.971 -6.135 -21.12 -14.75 a 23 23 0 0 0 44.875 -7 a 23 23 0 0 0 -16 -21.875 z" style="opacity:0.2"/>
 </g>
 <path d="M 24,1 C 36.703,1 47,11.297 47,24 47,36.703 36.703,47 24,47 11.297,47 1,36.703 1,24 1,11.297 11.297,1 24,1 z" style="fill:url(#linearGradient3813);fill-opacity:1"/>
 <g>
  <path d="m 40.03 7.531 c 3.712 4.084 5.969 9.514 5.969 15.469 0 12.703 -10.297 23 -23 23 c -5.954 0 -11.384 -2.256 -15.469 -5.969 4.178 4.291 10.01 6.969 16.469 6.969 c 12.703 0 23 -10.298 23 -23 0 -6.462 -2.677 -12.291 -6.969 -16.469 z" style="opacity:0.1"/>
 </g>
 <g transform="matrix(3.543307,0,0,3.543307,0.0023625,-7.86546e-4)">
  <rect width="3.104" height="1.129" x="3.951" y="5.08" style="fill:#fffdf0;fill-opacity:1;stroke:none"/>
  <path d="M 7.938,4.233 C 7.401,4.233 7.226,4.657 6.95,5.08 l -2.575,0 c -0.391,0 -0.706,0.315 -0.706,0.706 l 0,0.282 0,2.399 0,0.423 0,0.247 0,0.035 C 3.671,9.211 3.67,9.249 3.687,9.287 3.721,9.482 3.832,9.649 3.996,9.754 4.074,9.805 4.165,9.841 4.261,9.86 4.309,9.861 4.351,9.878 4.402,9.878 l 5.309,0 C 9.762,9.878 9.804,9.87 9.852,9.86 9.948,9.841 10.038,9.805 10.117,9.754 10.281,9.648 10.392,9.482 10.426,9.287 10.434,9.25 10.442,9.211 10.444,9.172 l 0,-0.035 0,-0.247 0,-3.916 c 0,-0.413 -0.324,-0.741 -0.732,-0.741 l -1.773,0 z" style="fill:#000;fill-opacity:0.102;stroke:none"/>
  <path d="m 4.092,4.516 c -0.391,0 -0.706,0.315 -0.706,0.706 l 0,2.681 6.491,0 0,-2.681 C 9.877,4.831 9.562,4.516 9.171,4.516 l -5.08,0 z" style="fill:#f57c00;fill-opacity:1;stroke:none"/>
  <path d="m 4.092,4.516 c -0.391,0 -0.706,0.315 -0.706,0.706 l 0,0.282 c 0,-0.391 0.315,-0.706 0.706,-0.706 l 5.08,0 c 0.391,0 0.706,0.315 0.706,0.706 l 0,-0.282 C 9.878,4.831 9.563,4.516 9.172,4.516 l -5.08,0 z" style="fill:#fff;opacity:0.2;fill-opacity:1;stroke:none"/>
  <path d="m 4.123,5.644 1.178,0 C 6.921,5.495 6.626,3.951 7.657,3.951 l 1.767,0 c 0.408,0 0.736,0.332 0.736,0.745 l 0,4.155 c 0,0.413 -0.328,0.745 -0.736,0.745 l -5.301,0 C 3.715,9.596 3.387,9.264 3.387,8.851 l 0,-2.368 c 0,-0.447 0.294,-0.839 0.736,-0.839 z" style="fill:#ffb300;fill-opacity:1;stroke:none"/>
  <path d="M 5.922,6.611 C 5.914,6.611 5.908,6.613 5.904,6.62 5.882,6.659 5.925,6.784 5.892,6.849 5.86,6.914 5.86,6.931 5.598,6.899 5.337,6.867 4.944,6.981 4.803,7.122 4.66,7.264 4.416,7.623 4.366,7.831 4.318,8.038 4.34,8.049 4.405,8.017 4.47,7.984 4.525,7.695 4.91,7.505 5.297,7.314 5.478,7.466 5.478,7.466 c 0,0 -0.333,-0.044 -0.577,0.158 -0.245,0.202 -0.398,0.359 -0.392,0.421 0.005,0.06 0.027,0.048 0.066,0 C 4.613,7.995 4.841,7.696 5.114,7.597 5.387,7.498 5.501,7.505 5.604,7.559 5.708,7.613 5.73,7.666 5.583,7.704 5.435,7.743 5.375,7.726 5.375,7.726 c 0,0 0.125,0.114 0.304,0.114 0.18,0 0.29,-0.011 0.29,-0.011 0,0 0.446,0.463 0.561,0.556 0.114,0.092 0.24,0.049 0.24,-0.006 0,-0.054 -0.055,-0.207 -0.055,-0.207 0,0 0.114,-0.257 -0.017,-0.545 C 6.567,7.338 6.208,7.039 6.208,7.039 6.208,7.039 6.17,6.875 6.089,6.766 6.023,6.678 5.956,6.611 5.922,6.61 M 4.066,7.931 C 4.05,7.9311 4.034,7.936 4.018,7.945 c -0.125,0.071 -0.06,0.197 0.05,0.197 0.109,0 0.229,-0.044 0.229,-0.044 0,0 -0.117,-0.171 -0.231,-0.166 m 0.241,0.21 c 0,0 -0.244,0.037 -0.272,0.152 -0.027,0.114 0.103,0.147 0.184,0.087 0.082,-0.06 0.087,-0.24 0.087,-0.24 m 0,0" style="fill:#000;fill-opacity:0.098;stroke:none;fill-rule:nonzero"/>
  <path d="M 5.922,6.297 C 5.914,6.297 5.908,6.299 5.904,6.306 5.882,6.345 5.925,6.47 5.892,6.535 5.86,6.6 5.86,6.617 5.598,6.585 5.337,6.553 4.944,6.667 4.803,6.808 4.66,6.95 4.416,7.309 4.366,7.517 4.318,7.724 4.34,7.735 4.405,7.703 4.47,7.67 4.525,7.381 4.91,7.191 5.297,7 5.478,7.152 5.478,7.152 c 0,0 -0.333,-0.044 -0.577,0.158 -0.245,0.202 -0.398,0.359 -0.392,0.421 0.005,0.06 0.027,0.048 0.066,0 C 4.613,7.681 4.841,7.382 5.114,7.283 5.387,7.184 5.501,7.191 5.604,7.245 5.708,7.299 5.73,7.352 5.583,7.39 5.435,7.429 5.375,7.412 5.375,7.412 c 0,0 0.125,0.114 0.304,0.114 0.18,0 0.29,-0.011 0.29,-0.011 0,0 0.446,0.463 0.561,0.556 0.114,0.092 0.24,0.049 0.24,-0.006 0,-0.054 -0.055,-0.207 -0.055,-0.207 0,0 0.114,-0.257 -0.017,-0.545 C 6.567,7.024 6.208,6.725 6.208,6.725 6.208,6.725 6.17,6.561 6.089,6.452 6.023,6.364 5.956,6.297 5.922,6.296 M 4.066,7.617 C 4.05,7.6171 4.034,7.622 4.018,7.631 c -0.125,0.071 -0.06,0.197 0.05,0.197 0.109,0 0.229,-0.044 0.229,-0.044 0,0 -0.117,-0.171 -0.231,-0.166 m 0.241,0.21 c 0,0 -0.244,0.037 -0.272,0.152 -0.027,0.114 0.103,0.147 0.184,0.087 0.082,-0.06 0.087,-0.24 0.087,-0.24 m 0,0" style="fill:#fff8e1;fill-opacity:1;stroke:none;fill-rule:nonzero"/>
  <path d="m 3.387 8.608 0 0.282 c 0 0.391 0.328 0.706 0.736 0.706 l 5.301 0 c 0.408 0 0.736 -0.315 0.736 -0.706 l 0 -0.282 c 0 0.391 -0.328 0.706 -0.736 0.706 l -5.301 0 c -0.408 0 -0.736 -0.315 -0.736 -0.706" style="fill:#000;opacity:0.15;fill-opacity:1;stroke:none"/>
 </g>
</svg>
